svg/timer_sand_complete.svg

<svg xmlns="http://www.w3.org/2000/svg" id="mdi-timer-sand-complete" viewBox="0 0 24 24"><path d="M18 22H6V16L10 12L6 8V2H18V8L14 12L18 16M8 7.5L12 11.5L16 7.5V4H8M12 12.5L8 16.5V20H16V16.5M14 18H10V17.2L12 15.2L14 17.2Z" /></svg>

<svg xmlns="http://www.w3.org/2000/svg" viewBox="0 0 24 24"><path d="M18 22H6v-6l4-4-4-4V2h12v6l-4 4 4 4M8 7.5l4 4 4-4V4H8m4 8.5-4 4V20h8v-3.5M14 18h-4v-.8l2-2 2 2Z"/></svg>
